!!!!SEGMENT: pl-kk--kk-i-315--012_palestrina-giovanni-pierluigi-da--introduxit-me-rex.krn
!!!cenid: 16xx:1108
!!!COM: Palestrina, Giovanni Pierluigi da
!!!COM-rismID: pe1904
!!!CDT: ~1525-1594/02/02
!!!CNT: Italian
!!!OTL: Introduxit me rex
!!!PDT:
!!!AGN: Sacred
!!!YEC: Copyright 2022 Narodowy Instytut Fryderyka Chopina (https://polishscores.org)
!!!YEM: License CC-BY-4.0 (https://creativecommons.org/licenses/by/4.0)
!!!SMS-siglum: PL-Kk
!!!SMS-shelfmark: Kk.I.315
!!!SMS-shelfwork: 012 W
!!!SMS-variant:
!!!SMS-altvar:
!!!NIFC-rismSourceID: 1001146217
!!!NIFC-rismChildID: 1001147266
!!!NIFC-islandoraID: pl-kk:5289
!!!URL-pdf-islandora: https://repozytorium.nifc.pl/islandora/object/pl-kk%3A5289/datastream/PDF/view
!!!URL-scan: https://polish.musicsources.pl/pl/lokalizacje/galeria/rekopisy/5934 @EN{Scan on Polish Music Sources Website} @PL{Skany w portalu Dziedzictwo Muzyki Polskiej w otwartym dostępie}
!!!IIIF:
!!!ONB-nifc: UWAGA: motety w zbiorze: 1. Osculetur me, 2. Trahe me post curremus, 3. Nigra sum sed formosa, 4. Vineam meam, 5. Si ignoras te o pulchra, 6. Pulchrae sunt genae tuae, 7. Fasciculus myrrhae, 8. Ecce tu pulcher es, 9. Tota pulchra es amica mea, 10. Vulnerasti cor meum, 11. Sicut lilium inter spinas, 12. Introduxit me rex, 13. Laeva ejus, 14. Vox dilecti mei
!!!AIN: 1 alto
!!!key: G:mix
**kern	**text
*staff1	*
*Ialto	*
*I"[Alto]	*
*I'[A]	*
*clefC2	*
*k[]	*
*G:mix	*
*M2/1	*
*met(C|)	*
=1-	=1-
!LO:TX:a:t=P:problem=inicjał I przed kluczem	!
1.b	In-
!LO:TX:a:t=P:problem=2\middle&colon; global	!
2b\	-tro-
=2-	=2-
1cc	-du-
2b,<\	-xit
2a\	me
=3-	=3-
2b,<\	Rex
2cc\	in
!LO:TX:a:t=P:problem=4\middle or left&colon; global	!
4a\	.
4g\	cel-
4a\	.
4b\	.
=4-	=4-
2cc\	.
!	!LO:MO:mod=-lam
2b\	-lum
!LO:LB:g=original	!
2a\	vi-
2.b\	-na-
=5-	=5-
.	.
4a\	.
1g	.
2f#X\	-ri-
=6-	=6-
!	!LO:MO:mod=-am
0g	-um
=7-	=7-
00r	.
=8-	=8-
.	.
=9-	=9-
2rd	.
1g	in-
2g\	-tro-
=10-	=10-
1a	-du-
2g\	-xit
2f\ny	me
=11-	=11-
1e	Rex
2r	.
1a\	in-
!LO:LB:g=original	!
=12-	=12-
.	.
2b\	-tro-
1cc	-du-
=13-	=13-
2b,<\	-xit
2a\	me
2g\	Rex
2b\	in
=14-	=14-
0cc	cel-
=15-	=15-
1.b	.
4a\	.
4g\	.
=16-	=16-
!	!LO:MO:mod=-lam
2a,<\	-lum
2b\	cel-
!	!LO:MO:mod=-lam
2a\	-lum
*custos:f	*
2a\	vi-
!LO:PB:g=original	!
=17-	=17-
2.f#X\	-na-
4g\	-ri-
!	!LO:MO:mod=-lam
1a	-um
=18-	=18-
!LO:TX:a:t=1	!
1r	.
2rd	.
1g\	or-
=19-	=19-
.	.
!LO:TX:a:t=P:problem=2/right or middle&colon; global	!
2c/	-di-
1e	-na-
=20-	=20-
2.f\ny	.
4e/	.
2d,</	-vit
2c/	in
=21-	=21-
1d,<	me
2.e/	cha-
4f\	.
!LO:LB:g=original	!
=22-	=22-
2g\	.
2a\	-ri-
1a	-ta-
=23-	=23-
1f	-tem
0rb	.
=24-	=24-
.	.
2r	.
1cc\	or-
=25-	=25-
.	.
2f\	-di-
1a	-na-
=26-	=26-
2.b\	.
4a\	.
2g,<\	-vit
2f\	in
=27-	=27-
2.g\	me
4f\	.
8e/L	.
16d/L	.
*custos:f	*
16e/JJ	.
!LO:LB:g=original	!
2f,<\	.
2d/	cha-
=28-	=28-
.	.
2e/	-ri-
1d	-ta-
2e/,<	-tem
=29-	=29-
.	.
2cc\	ful-
1cc	-ci-
2b\,<	-te
=30-	=30-
.	.
2a\	me
2a\	flo-
2b\	-ri-
1cc\,<	-bus
=31-	=31-
.	.
1b	sti-
1b\	-pa-
!LO:LB:g=original	!
=32-	=32-
.	.
2a,<\	-te
2g\	me
1a\	ma-
=33-	=33-
.	.
0g	-lis
.	.
=34-	=34-
.	.
2rd	.
2e/	sti-
2g\	-pa-
=35-	=35-
.	.
2c/	-te
1d	me
1f\	ma-
=36-	=36-
.	.
1e,<	-lis
0g\	qui-
=37-	=37-
.	.
1g\,<	-a
=38-	=38-
.	.
*custos:g	*
1g	a-
!LO:LB:g=original	!
4g\	-mo-
=39-	=39-
4f\	.
4e/	.
4d/	.
2c/	.
2d/	-re
1g\	lan-
=40-	=40-
.	.
1g	-gve-
1g\	-o
=41-	=41-
.	.
2rd	.
2a\	ful-
1a\	-ci-
=42-	=42-
.	.
2g,<\	-te
2f#X\	me
2.g\	flo-
=43-	=43-
.	.
4g\	-ri-
2g,<\	-bus
!LO:LB:g=original	!
2cc\	ful-
1cc\	-ci-
=44-	=44-
.	.
2b,<\	-te
2a\	me
2a\	flo-
=45-	=45-
.	.
2b\	-ri-
1cc,<	-bus
1b\	sti-
=46-	=46-
.	.
1b	-pa-
2a\	-te
=47-	=47-
.	.
2g\	me
1a	ma-
1g\	-lis
!LO:LB:g=original	!
=48-	=48-
.	.
2rd	.
2g\	sti-
2e/	-pa-
=49-	=49-
.	.
2c,</	-te
2d/	me
1f\ny	ma-
.	.
=50-	=50-
.	.
4e/	.
4d/	.
2c/	.
2A/	-lis
0a\	Qui-
=51-	=51-
.	.
1g#X\	-a
=52-	=52-
.	.
1r	.
0a\	qui-
=53-	=53-
.	.
!LO:TX:t=P:problem=kreska pseudotaktowa	!
1a\	-a
!LO:LB:g=original	!
=54-	=54-
.	.
1a	a-
1.b-X\	-mo-
=55-	=55-
.	.
.	.
2a\	-re
1g\ny	lan-
=56-	=56-
.	.
1f#X	-gve-
!LO:N:vis=00.	!
00.g\	-o.
==	==
*-	*-
!!!system-decoration: [(s1)]
!!!RDF**kern: l = terminal long
!!!RDF**kern: > = above
!!!RDF**kern: < = below
!!!EED: Antoni Szymański
!!!EEV: 2021-03-28
!!!ENC: Andrzej Gręziak
!!!END: 2021-03-22
